-----BEGIN PGP PUBLIC KEY BLOCK-----
Comment: User ID:	Scott Schoeller
Comment: Valid from:	9/24/23 3:55 AM
Comment: Type:	512-bit ECDSA (secret key available)
Comment: Usage:	Signing, Encryption, Certifying User IDs
Comment: Fingerprint:	886E 3663 320E 5AAD 00B2  AB7C CE0D 0A5C 2F44 1001

mJMEZQ/5kRMJKyQDAwIIAQENBAMEBkPDKX6LSFwK4mI00Zfn3IC5SynAip42tEyo
l51fJCpDJZD2wFMaQNeEQtBjbf9qiKj3+iYIAN/qzxjcUEcKkCFccuWFXiyaJrKe
tyskj0Cblq4ihMOAM45B1J4NbuwBCuSrtKrjujn+8CjIiQQ6Az+tOeLsY1esZZo3
dGzpQAa0KlNjb3R0IFNjaG9lbGxlciA8c3NjaG9lbGxlcjgwODBAZ21haWwuY29t
PojRBBMTCgA5AhsDAheAAh4HFiEEiG42YzIOWq0Asqt8zg0KXC9EEAEFAmqF+EYE
CwkIBwIiAgUVCgkICwQWAwECAAoJEM4NClwvRBABIFQB/1gwf+k40l1UmbgJs2x8
I3DM8tHdeaS4ApnIRGGqL972+qKUrMnbxIE7SUVv8UJwrQ0rSR9Fp28e6qA7zYgh
0YQB/jXUiucRH73ki5ktMCZbYMBHnxZ9IGdA7KorAkBVat3KTxQaraaiVUjcmXa3
RZs6U7kLTpuq/cdu52uQk8Qn3d64lwRlD/mREgkrJAMDAggBAQ0EAwQ4c9XsyM35
taxxmwRrsngxhnSkQYqcxNCe3XMlE0PQHfTgLpoLu+gOFWyxUs6xQlGB9b09kw17
KbJvm12z395NAo9It4ghujD/GrBtAx9K30+FHdtZd72/h9l7UapHt9KbJW3CmsNI
YhtD5Vq2yJgX8MEsrObq0df7IBWnDSu+fQMBCgmIvgQYEwoAJgIbDBYhBIhuNmMy
DlqtALKrfM4NClwvRBABBQJqhrr3BQkFeTMOAAoJEM4NClwvRBABT+4CAJ4c2XDl
KITBsJKuRmsFD8w8mJRtmTO2e6C2l/ZeF2gIFqyZpCA89vtsNfG9iHWwYZ5XfRWK
zgRlde8pFmQqYpoB/jfpH4y5SNgAgcrzDjwRF/gzYPvOdCzOGpWKCVDVK97qMT0u
zYB9mHQ7/Whzl3cVubszKteb9uaVAqskzPCH37e4lwRqhrhOEgkrJAMDAggBAQ0E
AwRFbOT5CLoN0dc0b5CZa8UiaEPuc6nWXhz5IqkO/ru3lKvn2yHs+EzZ03EfniFA
DY1NHWuCW0SHKNVPvmibRHVEASztuiM3LFQNFxJxkvo2JV9AnPJ2zjHjPpAMW0Gk
bQMeV/VRQ3A9SKlvIsREL7CAELd7DbnrVpvn1OUZTXRJyAMBCgmI2gQYEwoAQhYh
BIhuNmMyDlqtALKrfM4NClwvRBABBQJqhrhOGxSAAAAAAAQADm1hbnUyLDIuNSsx
LjEyLDIsMgIbDAUJBaOagAAKCRDODQpcL0QQAdZVAf479ebMx6mg9OLy/1fW5k46
nyCUm1Gx3mHlmEueCiTVHIcnJUlS/5ToY0RkbvXPM6lPCC373tlwzzd76qRDey+v
Af9M6/Dkv6X3xkJEnXqcK3HGppzl6/+VVsS6i/PSCTONfNT+XGVyKnOO1yV2zbeW
y8tuOw0vBxrHThNNGx0iaytO
=XcqN
-----END PGP PUBLIC KEY BLOCK-----
